X: 1
T: The Leprechaun   [Cm]
T: The Leprehaun
R: song
Z: 2020 John Chambers <jc:trillian.mit.edu>
M: 6/8
L: 1/8
K: Cdor
[|\
g3- g2f |\
"Cm"e2c "Gm"d2B | "Cm"c2B "Gm"G2F | "Cm"GAB c2c | c3- c2 G |\
"Cm"c2c e2f | "Gm"g2f b2g | "Bb"f2d B2d | f3- f2d |
"Cm"c2c e2f | "Gm"g2f b2g | "Bb"f2d B2d |[M:9/8] f3 g2f |[M:6/8]\
"Cm"e2c "Gm"dcB | c2B HG2 F/F/ | "Cm"GAB "Gm"c2B | "Cm"c3- c2z |]

%%sep 1 1 500
%%sep 1 1 500

